bundles/org.openhab.ui.habpanel/web/assets/icons/freepik-housethings/house-front.svg

<svg xmlns="http://www.w3.org/2000/svg" width="596.222" height="596.221" style="enable-background:new 0 0 596.222 596.221" xml:space="preserve"><path d="M416.925 302.892V74.348H0v278.269h39.685v168.778H79.37V372.699h59.766v149.175h457.087V302.892H416.925zM69.328 293.33h-10.04v-49.725h10.041v49.725zm20.56 0H79.847v-49.725h10.041v49.725zm20.559 0h-10.041v-49.725h10.041v49.725zm20.559 0h-10.041v-49.725h10.041v49.725zm20.56 0h-10.041v-49.725h10.041v49.725zm156.347 168.778H168.778v-89.409h139.135v89.409zM162.562 293.33v-49.725h10.041v49.725h-10.041zm20.56 0v-49.725h10.041v49.725h-10.041zm20.56 0v-49.725h10.041v49.725h-10.041zm20.559 0v-49.725h10.041v49.725h-10.041zm20.559 0v-49.725h10.041v49.725H244.8zm20.559 0v-49.725H275.4v49.725h-10.041zm20.56 0v-49.725h10.041v49.725h-10.041zm30.6 0h-10.04v-49.725h10.04v49.725zM59.288 233.564V124.073H357.16v109.491H59.288zm298.35 10.04v49.725h-10.041v-49.725h10.041zm-20.56 49.726h-10.04v-49.725h10.04v49.725zm208.941 218.503H337.557v-10.04h208.462v10.04zm0-21.516H337.557v-10.04h208.462v10.04zm0-21.516H337.557v-10.04h208.462v10.04zm0-21.515H337.557v-10.04h208.462v10.04zm0-21.516H337.557v-10.04h208.462v10.04zm0-21.516H337.557v-10.04h208.462v10.04zm0-21.515H337.557v-10.04h208.462v10.04z"/></svg>

<?xml version="1.0" encoding="iso-8859-1"?>
<!-- Generator: Adobe Illustrator 16.0.0, SVG Export Plug-In . SVG Version: 6.00 Build 0)  -->
<!DOCTYPE svg PUBLIC "-//W3C//DTD SVG 1.1//EN" "http://www.w3.org/Graphics/SVG/1.1/DTD/svg11.dtd">
<svg version="1.1" id="Capa_1" xmlns="http://www.w3.org/2000/svg" xmlns:xlink="http://www.w3.org/1999/xlink" x="0px" y="0px"
	 width="596.222px" height="596.221px" viewBox="0 0 596.222 596.221" style="enable-background:new 0 0 596.222 596.221;"
	 xml:space="preserve">
<g>
	<path d="M416.925,302.892V74.348H0v278.269h39.685v168.778h39.685V372.699h59.766v149.175h186.946h9.085h210.853h27.731h22.472
		V302.892H416.925z M69.328,293.33H59.288v-49.725h10.041V293.33z M89.888,293.33H79.847v-49.725h10.041V293.33z M110.447,293.33
		h-10.041v-49.725h10.041V293.33z M131.006,293.33h-10.041v-49.725h10.041V293.33z M151.566,293.33h-10.041v-49.725h10.041V293.33z
		 M307.913,462.108H168.778v-89.409h139.135V462.108z M162.562,293.33v-49.725h10.041v49.725H162.562z M183.122,293.33v-49.725
		h10.041v49.725H183.122z M203.682,293.33v-49.725h10.041v49.725H203.682z M224.241,293.33v-49.725h10.041v49.725H224.241z
		 M244.8,293.33v-49.725h10.041v49.725H244.8z M265.359,293.33v-49.725H275.4v49.725H265.359z M285.919,293.33v-49.725h10.041
		v49.725H285.919z M316.519,293.33h-10.04v-49.725h10.04V293.33z M59.288,233.564V124.073h297.872v109.491H59.288z M357.638,243.604
		v49.725h-10.041v-49.725H357.638z M337.078,293.33h-10.04v-49.725h10.04V293.33z M546.019,511.833H337.557v-10.04h208.462V511.833z
		 M546.019,490.317H337.557v-10.04h208.462V490.317z M546.019,468.801H337.557v-10.04h208.462V468.801z M546.019,447.286H337.557
		v-10.04h208.462V447.286z M546.019,425.77H337.557v-10.04h208.462V425.77z M546.019,404.254H337.557v-10.04h208.462V404.254z
		 M546.019,382.739H337.557v-10.04h208.462V382.739z"/>
</g>
<g>
</g>
<g>
</g>
<g>
</g>
<g>
</g>
<g>
</g>
<g>
</g>
<g>
</g>
<g>
</g>
<g>
</g>
<g>
</g>
<g>
</g>
<g>
</g>
<g>
</g>
<g>
</g>
<g>
</g>
</svg>
